public/library/alfred-text-dark.svg

<svg width="115" height="32" viewBox="0 0 115 32" fill="none" xmlns="http://www.w3.org/2000/svg">
<g clip-path="url(#clip0_3950_5494)">
<path d="M0 24.8201C0.213043 23.6337 0.403722 22.6309 1.08169 21.6057C3.78534 17.5131 11.103 18.6384 15.3026 18.4653C15.438 12.7838 9.5069 12.5025 5.38375 14.0197C4.39387 14.3834 3.62291 14.959 2.70953 15.4039L0.756832 11.6338C4.09254 9.15854 8.93839 8.40641 12.9909 9.0632C18.2181 9.91066 20.3144 13.1922 20.604 18.2817L20.5993 31.6458H15.538V29.0563C13.2993 31.8447 9.33976 32.3861 5.99816 31.7105C2.65656 31.0349 0.0894545 28.7879 0 25.291V24.8201ZM15.3014 21.9953H8.7689C8.57704 21.9953 7.63777 22.1965 7.39059 22.2648C6.52665 22.5037 5.54618 23.1711 5.34844 24.1069C4.34443 28.8491 11.4902 29.0045 14.0644 26.4668C14.2857 26.2491 15.3014 24.8496 15.3014 24.6436V21.9953Z" fill="#ffffff"/>
<path d="M114.643 0.337891V31.647H109.582V28.9398L107.806 30.4005C97.6302 35.9455 87.3241 26.1302 91.6697 15.4416C94.4451 8.61361 104.117 6.52438 109.346 11.7551V0.514446L109.523 0.337891H114.643ZM102.259 13.3194C93.9284 14.0185 94.1215 26.707 101.992 27.4073C112.085 28.3042 111.746 12.5237 102.259 13.3194Z" fill="#ffffff"/>
<path d="M71.2106 22.1131C72.5277 28.2043 80.6975 29.0329 84.6888 25.0816L87.343 28.0513C87.669 28.4115 86.8639 29.0353 86.5673 29.2895C83.1116 32.2474 77.5018 32.5982 73.3316 31.1151C63.102 27.4781 63.6776 12.1401 74.1284 9.31762C81.2872 7.38493 88.3741 11.4834 88.9814 19.1129C89.0285 19.7014 89.0791 21.2963 88.9838 21.8177C88.9602 21.9495 88.9238 22.0378 88.8072 22.112H71.2106V22.1131ZM83.9225 18.582C83.8272 15.9373 81.5838 13.6573 79.0237 13.1818C75.2243 12.4744 71.7379 14.7249 71.2106 18.582H83.9225Z" fill="#ffffff"/>
<path d="M38.1358 9.28333C38.0358 6.50435 38.4289 3.63004 40.67 1.75385C43.2689 -0.422487 48.1253 -0.544898 50.9714 1.23124L49.5578 5.11428L49.3941 5.15312C47.6674 3.98433 44.6189 3.81836 43.602 5.98293C43.5408 6.11358 43.3136 6.67502 43.3136 6.75388V9.28451H49.5519V13.3453L49.3753 13.5218H43.4313V31.6481H38.1346V13.5206H34.4858V9.28333H38.1346H38.1358Z" fill="#ffffff"/>
<path d="M31.5447 0.337891V31.647H26.248V0.514446L26.4246 0.337891H31.5447Z" fill="#ffffff"/>
<path d="M65.09 13.8737C62.8866 13.5288 60.3842 13.9737 58.8552 15.7016C57.6205 17.0976 57.298 19.0715 57.205 20.8782C57.0226 24.414 57.3392 28.097 57.2038 31.6469H52.0249V9.16556H57.0861V12.2258C58.5669 10.179 60.8103 9.24913 63.2809 8.94545C63.8047 8.88072 64.6957 8.68298 65.09 8.98901V13.8737Z" fill="#ffffff"/>
</g>
<defs>
<clipPath id="clip0_3950_5494">
<rect width="114.643" height="32" fill="white"/>
</clipPath>
</defs>
</svg>

<svg xmlns="http://www.w3.org/2000/svg" width="115" height="32" fill="none" viewBox="0 0 115 32"><g fill="#fff" clip-path="url(#a)"><path d="M0 24.82c.213-1.186.404-2.19 1.082-3.214 2.703-4.093 10.021-2.968 14.22-3.14.136-5.682-5.795-5.964-9.918-4.446-.99.363-1.761.939-2.674 1.384l-1.953-3.77c3.336-2.475 8.181-3.228 12.234-2.57 5.227.847 7.323 4.128 7.613 9.218l-.005 13.364h-5.061v-2.59c-2.239 2.789-6.198 3.33-9.54 2.654C2.657 31.036.09 28.789 0 25.292zm15.301-2.825H8.77c-.192 0-1.131.201-1.378.27-.864.239-1.845.906-2.043 1.842-1.004 4.742 6.142 4.898 8.716 2.36.222-.218 1.237-1.617 1.237-1.823zM114.643.338v31.309h-5.061V28.94l-1.776 1.46C97.63 35.947 87.324 26.13 91.67 15.443c2.775-6.828 12.447-8.918 17.676-3.687V.515l.177-.177zm-12.384 12.981c-8.33.7-8.138 13.388-.267 14.088 10.093.897 9.754-14.883.267-14.088M71.21 22.113c1.318 6.091 9.488 6.92 13.479 2.969l2.654 2.97c.326.36-.48.983-.776 1.238-3.455 2.957-9.065 3.308-13.235 1.825-10.23-3.637-9.654-18.975.796-21.797 7.16-1.933 14.246 2.165 14.853 9.795.047.588.098 2.183.003 2.705-.024.131-.06.22-.177.294H71.211zm12.713-3.531c-.096-2.645-2.34-4.925-4.9-5.4-3.799-.708-7.285 1.543-7.812 5.4zM38.136 9.283c-.1-2.779.293-5.653 2.534-7.53 2.599-2.175 7.455-2.298 10.301-.522l-1.413 3.883-.164.04c-1.727-1.17-4.775-1.336-5.792.829-.061.13-.288.692-.288.77v2.532h6.238v4.06l-.177.177h-5.944v18.126h-5.296V13.521h-3.65V9.283h3.65M31.545.338v31.309h-5.297V.514l.177-.176zM65.09 13.874c-2.203-.345-4.706.1-6.235 1.828-1.234 1.396-1.557 3.37-1.65 5.176-.182 3.536.134 7.219-.001 10.769h-5.18V9.166h5.062v3.06c1.48-2.047 3.724-2.977 6.195-3.28.524-.065 1.415-.263 1.809.043z"/></g><defs><clipPath id="a"><path fill="#fff" d="M0 0h114.643v32H0z"/></clipPath></defs></svg>
